assets/img/idearHover.svg

<svg width="213" height="198" viewBox="0 0 213 198" fill="none" xmlns="http://www.w3.org/2000/svg">
<rect width="213" height="198" fill="#301F36"/>
<path d="M81.3143 41V27H84.5543V41H81.3143ZM92.2768 41.16C91.2635 41.16 90.3501 40.9333 89.5368 40.48C88.7235 40.0133 88.0768 39.3667 87.5968 38.54C87.1301 37.7133 86.8968 36.74 86.8968 35.62C86.8968 34.4867 87.1301 33.5067 87.5968 32.68C88.0768 31.8533 88.7235 31.2133 89.5368 30.76C90.3501 30.3067 91.2635 30.08 92.2768 30.08C93.1835 30.08 93.9768 30.28 94.6568 30.68C95.3368 31.08 95.8635 31.6867 96.2368 32.5C96.6101 33.3133 96.7968 34.3533 96.7968 35.62C96.7968 36.8733 96.6168 37.9133 96.2568 38.74C95.8968 39.5533 95.3768 40.16 94.6968 40.56C94.0301 40.96 93.2235 41.16 92.2768 41.16ZM92.8168 38.6C93.3235 38.6 93.7835 38.48 94.1968 38.24C94.6101 38 94.9368 37.66 95.1768 37.22C95.4301 36.7667 95.5568 36.2333 95.5568 35.62C95.5568 34.9933 95.4301 34.46 95.1768 34.02C94.9368 33.58 94.6101 33.24 94.1968 33C93.7835 32.76 93.3235 32.64 92.8168 32.64C92.2968 32.64 91.8301 32.76 91.4168 33C91.0035 33.24 90.6701 33.58 90.4168 34.02C90.1768 34.46 90.0568 34.9933 90.0568 35.62C90.0568 36.2333 90.1768 36.7667 90.4168 37.22C90.6701 37.66 91.0035 38 91.4168 38.24C91.8301 38.48 92.2968 38.6 92.8168 38.6ZM95.6368 41V38.8L95.6968 35.6L95.4968 32.42V26.16H98.6168V41H95.6368ZM106.844 41.16C105.618 41.16 104.538 40.92 103.604 40.44C102.684 39.96 101.971 39.3067 101.464 38.48C100.958 37.64 100.704 36.6867 100.704 35.62C100.704 34.54 100.951 33.5867 101.444 32.76C101.951 31.92 102.638 31.2667 103.504 30.8C104.371 30.32 105.351 30.08 106.444 30.08C107.498 30.08 108.444 30.3067 109.284 30.76C110.138 31.2 110.811 31.84 111.304 32.68C111.798 33.5067 112.044 34.5 112.044 35.66C112.044 35.78 112.038 35.92 112.024 36.08C112.011 36.2267 111.998 36.3667 111.984 36.5H103.244V34.68H110.344L109.144 35.22C109.144 34.66 109.031 34.1733 108.804 33.76C108.578 33.3467 108.264 33.0267 107.864 32.8C107.464 32.56 106.998 32.44 106.464 32.44C105.931 32.44 105.458 32.56 105.044 32.8C104.644 33.0267 104.331 33.3533 104.104 33.78C103.878 34.1933 103.764 34.6867 103.764 35.26V35.74C103.764 36.3267 103.891 36.8467 104.144 37.3C104.411 37.74 104.778 38.08 105.244 38.32C105.724 38.5467 106.284 38.66 106.924 38.66C107.498 38.66 107.998 38.5733 108.424 38.4C108.864 38.2267 109.264 37.9667 109.624 37.62L111.284 39.42C110.791 39.98 110.171 40.4133 109.424 40.72C108.678 41.0133 107.818 41.16 106.844 41.16ZM120.429 41V38.9L120.229 38.44V34.68C120.229 34.0133 120.022 33.4933 119.609 33.12C119.209 32.7467 118.589 32.56 117.749 32.56C117.175 32.56 116.609 32.6533 116.049 32.84C115.502 33.0133 115.035 33.2533 114.649 33.56L113.529 31.38C114.115 30.9667 114.822 30.6467 115.649 30.42C116.475 30.1933 117.315 30.08 118.169 30.08C119.809 30.08 121.082 30.4667 121.989 31.24C122.895 32.0133 123.349 33.22 123.349 34.86V41H120.429ZM117.149 41.16C116.309 41.16 115.589 41.02 114.989 40.74C114.389 40.4467 113.929 40.0533 113.609 39.56C113.289 39.0667 113.129 38.5133 113.129 37.9C113.129 37.26 113.282 36.7 113.589 36.22C113.909 35.74 114.409 35.3667 115.089 35.1C115.769 34.82 116.655 34.68 117.749 34.68H120.609V36.5H118.089C117.355 36.5 116.849 36.62 116.569 36.86C116.302 37.1 116.169 37.4 116.169 37.76C116.169 38.16 116.322 38.48 116.629 38.72C116.949 38.9467 117.382 39.06 117.929 39.06C118.449 39.06 118.915 38.94 119.329 38.7C119.742 38.4467 120.042 38.08 120.229 37.6L120.709 39.04C120.482 39.7333 120.069 40.26 119.469 40.62C118.869 40.98 118.095 41.16 117.149 41.16ZM126.172 41V30.24H129.152V33.28L128.732 32.4C129.052 31.64 129.566 31.0667 130.272 30.68C130.979 30.28 131.839 30.08 132.852 30.08V32.96C132.719 32.9467 132.599 32.94 132.492 32.94C132.386 32.9267 132.272 32.92 132.152 32.92C131.299 32.92 130.606 33.1667 130.072 33.66C129.552 34.14 129.292 34.8933 129.292 35.92V41H126.172Z" fill="white"/>
<g clip-path="url(#clip0_941_1261)">
<path d="M125.393 83.2012C124.281 72.1701 112.333 65.0105 101.902 66.1065C98.7081 66.4424 89.072 69.3947 87.7131 72.3999C87.0248 73.9026 88.066 74.8572 87.9955 76.1477C87.8366 79.2767 84.9776 84.1205 85.0482 89.0527C85.507 119.989 128.075 109.789 125.393 83.2012ZM98.8669 102.17C89.0897 100.667 89.3367 83.1305 94.4371 76.7664C95.1254 75.9179 98.4433 73.1601 99.2905 72.559C102.361 70.4377 109.738 72.1701 112.95 74.0263C128.269 82.83 116.621 104.91 98.8669 102.17Z" fill="white"/>
<path d="M94.4372 144.331C93.2724 146.081 91.6311 145.18 89.5133 141.627C90.184 143.571 90.8546 148.221 88.0132 146.683C87.1837 145.586 85.1188 144.066 83.9364 142.581C81.748 143.005 79.6655 140.053 79.842 137.897C77.6712 135.086 69.6411 123.418 69.5 120.554C69.447 119.458 70.5059 117.019 70.9648 115.852C72.0237 113.236 77.9183 100.401 79.2419 98.9871C81.5009 96.5652 83.8658 97.3077 85.2247 100.048L90.9428 124.444C93.5019 125.204 90.6605 129.535 88.5956 127.961C88.5074 127.873 86.6013 127.396 86.266 127.378C86.1072 126.742 85.4895 126.035 85.26 125.168C83.8305 119.511 82.3304 113.819 81.3068 108.074C80.2655 109.859 75.1828 119.37 75.2887 120.554C75.3945 121.668 80.5302 128.81 81.5892 130.295C83.8305 130.118 85.6836 133.371 85.6836 135.528V135.563C86.1425 136.093 86.4601 136.871 87.1484 137.313C93.343 129.146 93.6607 139.629 94.4372 144.331Z" fill="white"/>
<path d="M143.482 119.406C143.094 123.401 136.176 134.379 134.041 138.675C133.282 140.195 133.07 142.493 132.399 143.748C133.317 146.382 129.717 148.557 128.322 146.099C127.846 144.986 127.105 143.253 126.558 141.998C126.187 139.647 127.016 136.164 129.487 135.563C131.146 132.063 137.553 121.686 137.658 118.822C137.711 117.408 131.764 110.107 130.37 108.64C129.752 107.986 127.316 105.175 126.575 105.723C124.528 110.867 123.381 116.224 121.898 121.527C121.792 122.199 121.916 122.694 122.181 123.083C122.428 125.823 121.104 127.979 117.539 127.237C115.863 126.883 113.992 124.691 115.474 123.277C116.992 117.903 118.175 112.423 120.134 107.172C121.069 104.662 123.293 97.361 126.222 97.5201C128.464 97.6439 134.782 105.122 136.476 107.208C138.841 110.089 143.835 115.64 143.482 119.406Z" fill="white"/>
<path d="M83.937 142.581C80.8308 149.423 79.066 156.883 77.5129 164.219L132.117 164.802C134.623 165.28 134.853 169.116 131.57 169.523C121.369 170.76 106.986 169.134 96.5203 168.886C90.6963 168.745 80.5661 169.858 75.4833 168.886C73.2596 168.462 72.1301 166.234 72.3772 164.095C73.3302 155.875 77.8482 146.046 79.8425 137.896C80.9544 139.346 82.6663 141.008 83.937 142.581Z" fill="#DAE1E1"/>
<path d="M129.487 135.564C128.481 137.685 127.705 139.93 126.558 141.999C124.722 137.685 122.393 133.548 121.21 128.934L120.363 128.033C111.998 128.846 103.703 128.899 95.3198 129.129C93.449 129.182 90.9253 130.525 88.984 129.164C88.4545 128.793 88.6486 127.998 88.5957 127.962C89.937 127.22 91.1547 126.124 90.9429 124.444L115.474 123.277C116.251 125.275 117.327 126.813 119.728 126.106C121.281 125.646 121.439 123.136 121.898 121.527C121.792 122.199 121.916 122.694 122.181 123.083C122.834 124.073 124.334 124.444 125.075 125.646C126.699 128.333 126.963 133.266 129.487 135.564Z" fill="#DAE1E1"/>
<path d="M128.322 146.099C130.14 146.488 131.605 145.286 132.417 143.766C133.74 146.453 135.082 149.193 136.211 151.968C137.182 154.372 140.729 163.265 140.659 165.121C140.535 168.108 137.235 167.808 136.017 165.633C133.793 158.986 131.058 152.552 128.34 146.117L128.322 146.099Z" fill="#DAE1E1"/>
<path d="M88.0136 146.683C90.3961 145.923 87.3959 140.248 88.0136 139.665C89.8137 137.95 92.108 145.304 94.4376 144.349C94.5435 145.021 94.8965 145.728 95.02 146.683C96.7319 146.577 97.0496 148.062 95.6024 149.016C95.6907 151.403 94.9671 153.754 92.0904 152.888C90.3079 152.34 89.249 148.292 88.0136 146.683Z" fill="white"/>
<path d="M95.0195 146.682C97.2609 146.558 97.9845 143.447 100.014 143.147C102.573 142.775 105.22 146.93 107.673 147.142C109.138 147.266 110.409 145.268 111.803 145.02C113.197 144.773 114.592 145.728 116.039 145.515C115.103 141.379 119.604 143.058 118.104 146.099C116.745 148.839 113.815 147.142 112.28 147.266C111.203 147.354 110.374 148.644 109.209 148.91C104.956 149.9 101.179 144.95 100.579 144.95C100.261 144.95 96.8903 148.857 95.6196 149.016C95.5843 148.309 95.1254 147.425 95.0372 146.682H95.0195Z" fill="#DAE1E1"/>
<path d="M85.6843 135.528V135.564C84.0783 133.725 83.0017 132.258 81.5898 130.296C82.8958 127.715 83.2312 127.149 86.2667 127.379C87.2021 130.985 86.4785 132.081 85.6843 135.528Z" fill="#DAE1E1"/>
</g>
<defs>
<clipPath id="clip0_941_1261">
<rect width="74" height="104" fill="white" transform="translate(69.5 66)"/>
</clipPath>
</defs>
</svg>

<svg xmlns="http://www.w3.org/2000/svg" width="213" height="198" fill="none"><path fill="#301F36" d="M0 0h213v198H0z"/><path fill="#fff" d="M81.314 41V27h3.24v14zm10.963.16q-1.52 0-2.74-.68a5.2 5.2 0 0 1-1.94-1.94q-.7-1.24-.7-2.92 0-1.7.7-2.94a5.06 5.06 0 0 1 1.94-1.92q1.22-.68 2.74-.68 1.36 0 2.38.6t1.58 1.82.56 3.12q0 1.88-.54 3.12-.54 1.22-1.56 1.82-1 .6-2.42.6m.54-2.56q.76 0 1.38-.36t.98-1.02q.38-.68.38-1.6 0-.94-.38-1.6a2.6 2.6 0 0 0-.98-1.02 2.7 2.7 0 0 0-1.38-.36q-.78 0-1.4.36t-1 1.02q-.36.66-.36 1.6 0 .92.36 1.6.38.66 1 1.02t1.4.36m2.82 2.4v-2.2l.06-3.2-.2-3.18v-6.26h3.12V41zm11.207.16q-1.839 0-3.24-.72-1.38-.72-2.14-1.96-.76-1.26-.76-2.86 0-1.62.74-2.86a5.3 5.3 0 0 1 2.06-1.96q1.3-.72 2.94-.72 1.58 0 2.84.68a4.9 4.9 0 0 1 2.02 1.92q.74 1.24.74 2.98 0 .18-.02.42l-.04.42h-8.74v-1.82h7.1l-1.2.54q0-.84-.34-1.46a2.4 2.4 0 0 0-.94-.96q-.6-.36-1.4-.36t-1.42.36q-.6.34-.94.98-.34.62-.34 1.48v.48q0 .88.38 1.56.4.66 1.1 1.02.72.34 1.68.34.861 0 1.5-.26.66-.26 1.2-.78l1.66 1.8a4.9 4.9 0 0 1-1.86 1.3q-1.119.44-2.58.44m13.585-.16v-2.1l-.2-.46v-3.76q0-1-.62-1.56-.6-.56-1.86-.56a5.3 5.3 0 0 0-1.7.28 4.3 4.3 0 0 0-1.4.72l-1.12-2.18q.88-.62 2.12-.96a9.5 9.5 0 0 1 2.52-.34q2.46 0 3.82 1.16t1.36 3.62V41zm-3.28.16q-1.26 0-2.16-.42-.9-.44-1.38-1.18a3 3 0 0 1-.48-1.66q0-.96.46-1.68.48-.72 1.5-1.12 1.02-.42 2.66-.42h2.86v1.82h-2.52q-1.1 0-1.52.36-.4.36-.4.9 0 .6.46.96.48.34 1.3.34.78 0 1.4-.36.62-.38.9-1.1l.48 1.44q-.34 1.04-1.24 1.58t-2.32.54m9.023-.16V30.24h2.98v3.04l-.42-.88q.48-1.14 1.54-1.72 1.06-.6 2.58-.6v2.88a4 4 0 0 0-.36-.02 3 3 0 0 0-.34-.02q-1.28 0-2.08.74-.78.72-.78 2.26V41z"/><g clip-path="url(#a)"><path fill="#fff" d="M125.393 83.201c-1.112-11.03-13.06-18.19-23.491-17.094-3.194.335-12.83 3.288-14.189 6.293-.688 1.503.353 2.457.283 3.748-.16 3.129-3.018 7.973-2.948 12.905.459 30.936 43.027 20.736 40.345-5.852M98.867 102.17c-9.777-1.503-9.53-19.04-4.43-25.404.688-.848 4.006-3.606 4.853-4.207 3.071-2.121 10.448-.389 13.66 1.467 15.319 8.804 3.671 30.884-14.083 28.144"/><path fill="#fff" d="M94.437 144.331q-1.747 2.625-4.924-2.704c.671 1.944 1.342 6.594-1.5 5.056-.83-1.097-2.894-2.617-4.077-4.102-2.188.424-4.27-2.528-4.094-4.684-2.17-2.811-10.2-14.479-10.342-17.343-.053-1.096 1.006-3.535 1.465-4.702 1.059-2.616 6.953-15.451 8.277-16.865 2.259-2.422 4.624-1.68 5.983 1.061l5.718 24.396c2.559.76-.282 5.091-2.347 3.517-.089-.088-1.995-.565-2.33-.583-.159-.636-.776-1.343-1.006-2.21-1.43-5.657-2.93-11.349-3.953-17.094-1.041 1.785-6.124 11.296-6.018 12.48.105 1.114 5.241 8.256 6.3 9.741 2.242-.177 4.095 3.076 4.095 5.233v.035c.459.53.776 1.308 1.464 1.75 6.195-8.167 6.513 2.316 7.29 7.018M143.482 119.406c-.388 3.995-7.306 14.973-9.441 19.269-.759 1.52-.971 3.818-1.642 5.073.918 2.634-2.682 4.809-4.077 2.351-.476-1.113-1.217-2.846-1.764-4.101-.371-2.351.458-5.834 2.929-6.435 1.659-3.5 8.066-13.877 8.171-16.741.053-1.414-5.894-8.715-7.288-10.182-.618-.654-3.054-3.465-3.795-2.917-2.047 5.144-3.194 10.501-4.677 15.804-.106.672.018 1.167.283 1.556.247 2.74-1.077 4.896-4.642 4.154-1.676-.354-3.547-2.546-2.065-3.96 1.518-5.374 2.701-10.854 4.66-16.105.935-2.51 3.159-9.811 6.088-9.652 2.242.124 8.56 7.602 10.254 9.688 2.365 2.881 7.359 8.432 7.006 12.198"/><path fill="#DAE1E1" d="M83.937 142.581c-3.106 6.842-4.871 14.302-6.424 21.638l54.604.583c2.506.478 2.736 4.314-.547 4.721-10.201 1.237-24.584-.389-35.05-.637-5.824-.141-15.954.972-21.037 0-2.223-.424-3.353-2.652-3.106-4.791.953-8.22 5.471-18.049 7.466-26.199 1.111 1.45 2.823 3.112 4.094 4.685M129.487 135.564c-1.006 2.121-1.782 4.366-2.929 6.435-1.836-4.314-4.165-8.451-5.348-13.065l-.847-.901c-8.365.813-16.66.866-25.043 1.096-1.871.053-4.395 1.396-6.336.035-.53-.371-.335-1.166-.388-1.202 1.341-.742 2.559-1.838 2.347-3.518l24.531-1.167c.777 1.998 1.853 3.536 4.254 2.829 1.553-.46 1.711-2.97 2.17-4.579-.106.672.018 1.167.283 1.556.653.99 2.153 1.361 2.894 2.563 1.624 2.687 1.888 7.62 4.412 9.918M128.322 146.099c1.818.389 3.283-.813 4.095-2.333 1.323 2.687 2.665 5.427 3.794 8.202.971 2.404 4.518 11.297 4.448 13.153-.124 2.987-3.424 2.687-4.642.512-2.224-6.647-4.959-13.081-7.677-19.516z"/><path fill="#fff" d="M88.014 146.683c2.382-.76-.618-6.435 0-7.018 1.8-1.715 4.094 5.639 6.424 4.684.105.672.459 1.379.582 2.334 1.712-.106 2.03 1.379.582 2.333.089 2.387-.635 4.738-3.512 3.872-1.782-.548-2.841-4.596-4.076-6.205"/><path fill="#DAE1E1" d="M95.02 146.682c2.24-.124 2.965-3.235 4.994-3.535 2.559-.372 5.206 3.783 7.659 3.995 1.465.124 2.736-1.874 4.13-2.122s2.789.708 4.236.495c-.936-4.136 3.565-2.457 2.065.584-1.359 2.74-4.289 1.043-5.824 1.167-1.077.088-1.906 1.378-3.071 1.644-4.253.99-8.03-3.96-8.63-3.96-.318 0-3.689 3.907-4.96 4.066-.035-.707-.494-1.591-.582-2.334zM85.684 135.528v.036c-1.606-1.839-2.682-3.306-4.094-5.268 1.306-2.581 1.641-3.147 4.677-2.917.935 3.606.212 4.702-.583 8.149"/></g><defs><clipPath id="a"><path fill="#fff" d="M69.5 66h74v104h-74z"/></clipPath></defs></svg>
